resources/svg/rollupjs.svg

<svg xmlns="http://www.w3.org/2000/svg" viewBox="0 0 15 15" fill="currentColor"><path d="M1 0.5C1 0.223858 1.22386 0 1.5 0H9C9.78232 0 10.5227 0.179671 11.1821 0.5H11.0475C9.36695 0.187049 7.67888 1.02415 6.91256 2.55679L1.32457 13.7328C1.11798 13.369 1 12.9483 1 12.5V0.5Z" fill="black"/><path d="M4.87054 15H13.5C13.67 15 13.8284 14.9136 13.9204 14.7707C14.0124 14.6278 14.0255 14.4479 13.9552 14.2931L11.6567 9.23646C13.0636 8.35239 14 6.78593 14 5C14 3.63727 13.4548 2.40188 12.5707 1.5H10.442C10.0207 1.5 9.62722 1.71056 9.39352 2.06111C9.17783 2.38464 9.1236 2.78964 9.24656 3.15853L9.70376 4.53013C9.81434 4.86188 10.0942 5.10894 10.4371 5.17752C10.4988 5.18985 10.5588 5.1901 10.6154 5.18031L10.6237 5.17078L10.6312 5.1773C10.8999 5.12131 11.0855 4.83776 10.99 4.55119L10.5257 3.15811L11.4743 2.84189L11.9387 4.23496C12.1861 4.97711 11.8192 5.71264 11.2033 6.02793C8.96664 8.60894 6.97485 11.3926 5.25378 14.343L4.87054 15Z" fill="black"/></svg>

<svg xmlns="http://www.w3.org/2000/svg" viewBox="0 0 15 15" fill="currentColor"><path d="M1 .5a.5.5 0 01.5-.5H9c.782 0 1.523.18 2.182.5h-.135a3.838 3.838 0 00-4.134 2.057L1.325 13.733A2.489 2.489 0 011 12.5V.5z" fill="currentColor"/><path d="M4.87 15h8.63a.5.5 0 00.455-.707l-2.298-5.057A4.997 4.997 0 0014 5a4.984 4.984 0 00-1.43-3.5h-2.128a1.26 1.26 0 00-1.195 1.659l.457 1.371c.11.332.39.579.733.648a.485.485 0 00.178.002l.009-.01.007.007a.484.484 0 00.359-.626l-.464-1.393.948-.316.465 1.393a1.483 1.483 0 01-.736 1.793 55.058 55.058 0 00-5.95 8.315L4.872 15z" fill="currentColor"/></svg>
